icon-themes/sifr_svg/cmd/sc_crookrotate.svg

<svg viewBox="0 0 16 16" xmlns="http://www.w3.org/2000/svg"><path d="m0 0v.98632812 13.38085988l.99023438-.00586c3.73251732-.026703 6.93380502.499303 10.84570362 1.414063l.957031.224609 3.207031-13.5820312-.917969-.2460938c-5.4133526-1.43778119-9.8460133-2.10767428-14.082031-2.15820312zm2 2c3.5.1216744 7.2086393.7273252 11.644531 1.8515625l-2.324219 9.8457035c-3.2181614-.717101-6.1400829-1.135906-9.320312-1.197266zm3 4-2 2 2 2v-1h4v1l2-2-2-2v1h-4z" fill="#555753"/></svg>

<svg xmlns="http://www.w3.org/2000/svg" viewBox="0 0 16 16">
<path
   style="fill:#555753"
   d="M 0 0 L 0 0.98632812 L 0 14.367188 L 0.99023438 14.361328 C 4.7227517 14.334625 7.9240394 14.860631 11.835938 15.775391 L 12.792969 16 L 16 2.4179688 L 15.082031 2.171875 C 9.6686784 0.73409381 5.2360177 0.064200715 1 0.013671875 L 0 0 z M 2 2 C 5.5 2.1216744 9.2086393 2.7273252 13.644531 3.8515625 L 11.320312 13.697266 C 8.1021506 12.980165 5.1802291 12.56136 2 12.5 L 2 2 z M 5 6 L 3 8 L 5 10 L 5 9 L 9 9 L 9 10 L 11 8 L 9 6 L 9 7 L 5 7 L 5 6 z "
   />
</svg>
